X: 1
T: Give Me the Girl That's Ripe for Joy  v.1
P: piffero primo a0292
O: retrospective
F: http://ancients.sudburymuster.org/mus/med/pdf/shotgunC1.pdf
Z: 2019 John Chambers <jc:trillian.mit.edu>
M: 4/4
L: 1/8
K: G
dc |\
B2B>B BdcB | A2A>A A2Bc |\
ddcB (Ac)BA | G2G>G G2 ::\
gf |\
e2dd d2(3(GBd) |
c2BB B2gf |\
e2d>d d2cB | (AG)FE D2dc |\
B2B>B BgdB | A2A>A ABcd |\
(eg)dB (Ac)BA | G2G>G G2 :|


